icons/Flag_filled.svg

<svg width="24" height="24" viewBox="0 0 24 24" fill="none" xmlns="http://www.w3.org/2000/svg">
<path fill-rule="evenodd" clip-rule="evenodd" d="M12.6328,4.60099c1.9016,0.72007 3.5127,1.33011 5.5488,0.37534c0.2323,-0.10893 0.5042,-0.09155 0.7207,0.04607c0.2165,0.13763 0.3477,0.3764 0.3477,0.63298v9.18872c0,0.2994 -0.1781,0.5701 -0.453,0.6887c-2.5777,1.1114 -4.7267,0.2806 -6.5377,-0.4195c-0.1775,-0.0686 -0.3516,-0.1359 -0.5226,-0.2c-0.9914,-0.3718 -1.8785,-0.6479 -2.7909,-0.6378c-0.80613,0.0089 -1.68502,0.2435 -2.6958,0.9484v4.7761c0,0.4142 -0.33579,0.75 -0.75,0.75c-0.41421,0 -0.75,-0.3358 -0.75,-0.75v-5.1559v-0.3441v-8.84462c0,-0.23929 0.11419,-0.46422 0.30736,-0.60545c1.37033,-1.00183 2.65152,-1.3707 3.88849,-1.35693c1.20595,0.01342 2.31445,0.39244 3.31745,0.76857c0.1245,0.04667 0.2476,0.09327 0.3695,0.13942z" fill="#002B51"/>
</svg>

<svg width="24" height="24" viewBox="0 0 24 24" fill="none" xmlns="http://www.w3.org/2000/svg">
<path fill-rule="evenodd" clip-rule="evenodd" d="M12.6328 4.60099C14.5344 5.32106 16.1455 5.9311 18.1816 4.97633C18.4139 4.8674 18.6858 4.88478 18.9023 5.0224C19.1188 5.16003 19.25 5.3988 19.25 5.65538V14.8441C19.25 15.1435 19.0719 15.4142 18.797 15.5328C16.2193 16.6442 14.0703 15.8134 12.2593 15.1133C12.0818 15.0447 11.9077 14.9774 11.7367 14.9133C10.7453 14.5415 9.8582 14.2654 8.9458 14.2755C8.13967 14.2844 7.26078 14.519 6.25 15.2239L6.25 20C6.25 20.4142 5.91421 20.75 5.5 20.75C5.08579 20.75 4.75 20.4142 4.75 20V14.8441V14.5V5.65538C4.75 5.41609 4.86419 5.19116 5.05736 5.04993C6.42769 4.0481 7.70888 3.67923 8.94585 3.693C10.1518 3.70642 11.2603 4.08544 12.2633 4.46157C12.3878 4.50824 12.5109 4.55484 12.6328 4.60099Z" fill="#002B51"/>
</svg>
